X:0873
M:C
L:1/8
Q:1/4=120
K:D
z2|A>GF>G Ad3   |B>AG>A Bd3  |A>GF>E Dd`d3/e//f//|e4z2
f<a|d3  B c3   A|d2 F2 HB2 B2|AG`FG  Ad`ef       |d6|]

